X:1
T:Do You Hear the People Sing?
T:DO YOU HEAR THE PEOPLE SING?
T:À la Volonté du Peuple; Les Misérables
T:Alain Boublil and Jean-Marc Natel (French lyrics) Herbert Kretzmer and James Fenton (English lyrics)
T:Claude-Michel Schönberg arr. K. H. Moa
%%score 1 2 { ( 3 5 ) | 4 }
L:1/8
Q:1/4=120
M:4/4
K:F
V:1 treble nm="Alto"
V:2 treble nm="Tenor"
V:3 treble nm="Piano"
V:5 treble 
V:4 bass 
V:1
 z8 | z8 | z8 | z8 | z8 | z8 | z8 | z8 | z8 | z4 z2 E>E |[K:C] A>^G A>B c>B A>c | B>A =G>A B3 c | %12
w: |||||||||Will you|join in our cru- sades? Who will be|strong and stand with me? Be-|
 (3:2:2d2 c (3Bcd- (3:2:2d2 c (3:2:2B2 d | c>B A>B c2 z3/2 A/ | (3cBA (3cBA (3cBA (3cBc | %15
w: yond the ba- ri- cade * is there a|world you long to see, then|join in the fight that will give you the right to be|
 d4 z2!f! e>d | c>d e>f g2 (3edc | B>A B>c G2 (3AGF | E>G c>e d>^c d>A | =c>B B>c d2 e>d | %20
w: free! Do you|hear the peo- ple sing, sing- ing the|songs of an- gry men, it is the|mus- ic of a peo- ple who will|not be slaves a- gain! When the|
 c>d e>f g2 (3edc | B>A B>c G2 (3AGF | E>G c>e (3d^cd f>B | =c4 z4 | z8 | z8 | z8 | z8 | z8 | %29
w: beat- ing of your heart ech- oes the|beat- ing of your drums, there is a|life a- bout to start when to- mor- row|comes!||||||
 z6!f! e>d | c>d e>f g2 (3edc | B>A B>c G2 (3AGF | E>G c>e d>^c d>A | =c>B B>c d z e>d | %34
w: Will you|join in our cru- sade? Who will be|strong and stand with me? Some- where be-|yond the ba- ri- cade is there a|world you long to see? Do you|
 c>d e>f g2 (3edc | B>A B>c G2 (3AGF | E>G c>e (3d^cd f>B | =c4 z2!ff! e>d | c>d e>f g2 (3edc | %39
w: hear the peo- ple sing? Say do you|hear the dis- tant drums? It is the|fu- ture that they bring when to- mor- row|comes! Will you|join in our cru- sade? Who will be|
 B>A B>c G2 (3AGF | E>G c>e d>^c d>A | =c>B B>c d z e>d | c>d e>f g2 (3edc | B>A B>c G2 (3AGF | %44
w: strong and stand with me? Some- where be-|yond the ba- ri- cade is there a|world you long to see? Do you|hear the peo- ple sing? Say do you|hear the dis- tant drums, it is the|
 E>G c>e (3d^cd f>B | =c6 z2 | d8 | e8 | g4 z !tenuto!d!tenuto!f!tenuto!e | !fermata!g8 |] %50
w: fu- ture that they bring when to- mor- row|comes!|Ah|Ah|Ah to- mor- row|comes!|
V:2
 z8 | z4 z2!mf! A>G | F>G A>B c2 (3AGF | E>D E>F C2 (3DCB, | A,>C F>A G2 (3GGD | F>E E>F G2 A>G | %6
w: |Do you|hear the peo- ple sing, sing- ing the|songs of an- gry men? It is the|mus- ic of a peo- ple who will|not be slaves a- gain! When the|
 F>G (3(AB)c c2 (3AGF | E2 DE/F/ C2 (3DCB, | A,>C F>A (3G^FG B>E | =F4 z2 z2 |[K:C] z8 | z8 | z8 | %13
w: beat- ings of * your life ech- oes the|beat- ings of the drums, there is a|life a- bout to start when to- mor- row|comes.||||
 z8 | z8 | d4 z2!f! c>G | E>G c>d e2 (3cGE | G>F G>A E2 (3FED | C>D E>G ^F>E F>F | A>G G>A B2 c>G | %20
w: ||* Do you|hear the peo- ple sing sing- ing the|songs of an- gry men, it is the|mus- ic of a peo- ple who will|not be slaves a- gain! When the|
 E>G c>d e2 (3cGE | G>F G>A E2 (3FED | C>D E>G (3AAA B>F | E4 z2!mf! E>E | A>^G A>B c>B A>c | %25
w: beat- ing of your heart ech- oes the|beat- ing of your drums, there is a|life a- bout to start when to- mor- row|comes! They will|live a- gain in free- dom in the|
 B>A =G>A B2 z2 | d>c B>c d>c Bd | c>B A>B c2 z2 | (3cBA (3cBA (3cBA (3cBc | d4 z2!f! e>d | %30
w: gar- den of the lord,|walk be- hind the plough share, they will|put a- way there sword.|Chain will be bro- ken and all men will have their re-|ward! Will you|
 E>G c>d e2 (3cGE | G>F G>A E2 (3FED | C>D E>G ^F>E ^F>F | A>G G>A B z c>G | E>G c>d e2 (3cGE | %35
w: join in our cru- sade? Who will be|strong and stand with me? Some- where be-|yond the ba- ri- cade is there a|world you long to see? Do you|hear the peo- ple sing? Say do you|
 G>F G>A E2 (3FED | C>D E>G (3AAA B>F | E4 z2!ff! c>G | E>G c>d e2 (3cGE | G>F G>A E2 (3FED | %40
w: hear the dis- tant drums? It is the|fu- ture that they bring when to- mor- row|comes! Will you|join in our cru- sade? Who will be|strong and stand with me? Some- where be-|
 C>D E>G ^F>E ^F>F | A>G G>A B z c>G | E>G c>d e2 (3cGE | G>F G>A E2 (3FED | C>D E>G (3AAA B>F | %45
w: yord the ba- ri- cade is there a|world you long to see? Do you|hear the peo- ple sing? Say do you|hear the dis- tant drums, it is the|fu- ture that they bring when to- mor- row|
 E6 z2 | _B8 | A8 | _A4 z !tenuto!d!tenuto!d!tenuto!e | !fermata!c8 |] %50
w: comes!|Ah|Ah|Ah to- mor- row|comes!|
V:3
!mf! [CF]2 [CF]2 [CF]2 [CF]2 | [CF]2 [CF]2 [CF]2 [CF]2 | [CF]2 [CF]2 [CF]2 [CF]2 | %3
 [B,D]2 [B,D]2 [A,C]2 [A,C]2 | [A,DF]2 [A,DF]2 [=B,DG]2 [B,DG]2 | [CF]>E [CE]>[DF] [CEG]2 C2 | %6
 [CF]2 [CF]2 [CF]2 [CF]2 | [B,D]2 [B,D]2 [A,C]2 [A,C]2 | [F,A,D]2 [F,A,D]2 [G,B,D]2 [G,B,CE]2 | %9
 [A,CF]2 [A,CF]>[A,CF] [A,CF]2 [^G,=B,E]2 |[K:C] [CEA]2 [CEA]2 [CEA]2 [CEA]2 | %11
 [B,EGB]2 [B,EGB]2 [B,EGB]2 [B,EGB]2 | [DFAd]2 [DFAd]2 [DFAd]2 [DFAd]2 | %13
 [CEAc]2 [CEAc]2 [CEAc]2 [CEAc]2 | [FAc]2 [EAc]2 [DFAc]2 [CFAc]2 | [DGB]2 [DGB]2 [DGB]4 | %16
 [EGc]2 [EGc]2 [EGc]2 [EGc]2 | [CFA]2 [CFA]2 [CEG]2 (3[FA][EG][DF] | [CE]2 [CEA]2 [D^FA]2 [DFA]2 | %19
 D2 D2 [DGBd]2 G2 | [EGc]2 [EGc]2 [Gcg]2 [Gcg]2 | [FAc]2 [FAc]2 [EGc]2 (3[FA][EG][DF] | %22
 [CE]2 [CEA]2 (3[FAd]^cd [GB]2 | [EG=c]6 z2 | [A,CE] z [A,CE] z [A,CE] z [A,CE] z | %25
 [G,B,E] z [G,B,E] z [G,B,E] z [G,B,E] z | [A,DF] z [A,DF] z [A,DF] z [A,DF] z | %27
 [A,CE] z [A,CE] z [A,CE] z [A,CE] z | [CFA] z [CFA] z [CGB] z [CFA] z | %29
 [DGB] z [DGB]!<(! z [DGB] z [DGB] z!<)! |!f! [Gceg]4 [Gc]4 | [Ac]4 [Gceg]4 | [Ace]4 [Ad^f]4 | %33
 [Gcdg]2 [GBdg]2 [Gdg]4 | [EGc]4 [cgc']4 | c4 [Gg]4 | [Ece]4 (3[df][^ce][df] [Bfa]>[FGB] | %37
 [EG=c]2 [cegc']>[cegc'] [cegc']4 |!ff! [Gceg]4 [Gc]4 | [Ac]4 [Gceg]4 | [Ace]4 [Ad^f]4 | %41
 [Gcdg]2 [GBdg]2 [Gdg]4 | [EGc]4 [cgc']4 | c4 [Gg]4 | [Ece]4 (3[df][^ce][df] [Bfa]>[FGB] | %45
 [EG=c]2 [cegc']>[cegc'] [egc']4 | z2 !>![f_bd']>!>![fbd'] !>![fbd']4 | %47
 z2 !>![eac'e']>!>![eac'e'] !>![eac'e']4 | z2 !>![_ac'g']>!>![ac'g'] !>![ac'g']4 | %49
 !fermata![cegc']8 |] %50
V:4
 F,,2 F,4 C,>C,, | F,,2 F,4 C,>C,, | F,,2 F,4 F,,2 | F,,2 F,4 F,,>E,, | D,,4 G,,4 | %5
 C,,2 C,4 C,>C,, | F,,2 F,4 F,,2 | F,,2 F,4 E,,2 | D,,4 G,,2 C,,2 | F,,2 F,2 F,,2 [E,,E,]2 | %10
[K:C]!mf! A,,2 A,4 A,,2 | E,,2 E,4 E,,2 | D,,2 D,4 D,2 | A,,2 A,4 G,,2 | F,,4 [D,,D,]4 | %15
 G,,,4 G,,4 | [C,,C,]2- [C,,C,]>G,, [C,,C,]4 | [C,,C,]4 [C,,C,]2 [B,,,B,,]2 | %18
 [A,,,A,,]4 [D,,,D,,]4 | [G,,,G,,]2 [G,,,G,,]>D,, [G,,,G,,]2 G,,2 | [C,,C,]4 [E,,E,]4 | %21
 [F,,F,]4 [E,,E,]4 | A,,2 A,2 [D,,D,]2 G,,2 | %23
 [C,,C,]2 (3.[C,,C,]!>(! z [C,,C,] !tenuto![C,,C,]2 !tenuto![B,,,B,,]2!>)! | %24
!mp! [A,,,A,,] z z2 [A,,,A,,] z z2 | [E,,E,] z z2 [E,,E,] z z2 | [D,,D,] z z2 [D,,D,] z z2 | %27
 [A,,,A,,] z z2 [A,,,A,,]2 [G,,,G,,]2 | [F,,,F,,]4 [D,,D,]4 | [G,,G,]6 z2 | %30
 [C,C]2 [C,C]2 [E,E]2 [E,E]2 | [F,F]2 [F,F]2 [C,C]2 [B,,B,]2 | %32
 [A,,A,]2 [A,,A,]2 [D,,D,]2 [D,,D,]2 | [G,,,G,,]2 [G,,,G,,]2 [B,,,B,,]2 [B,,,B,,]2 | %34
 [C,,C,]2 [C,,C,]2 [E,,E,]2 [E,,E,]2 | [F,,F,]2 [F,,F,]2 [C,C]2 [B,,B,]2 | %36
 [A,,A,]2 [A,,A,]2 [D,D]2 [G,,G,]2 | [C,,C,]4 z2 [G,,,G,,]2 | [C,,C,]2 [C,,C,]2 [E,,E,]2 [E,,E,]2 | %39
 [F,,F,]2 [F,,F,]2 [C,,C,]2 [B,,,B,,]2 | [A,,,A,,]2 [A,,,A,,]2 [D,,D,]2 [D,,D,]2 | %41
 [G,,G,]2 [G,,G,]2 [B,,,B,,]2 [B,,,B,,]2 | [C,,C,]2 [C,,C,]2 [E,,E,]2 [E,,E,]2 | %43
 [F,,F,]2 [F,,F,]2 [C,C]2 [B,,B,]2 | [A,,A,]2 [A,,A,]2 [D,,D,]2 [G,,,G,,]2 | [C,,C,]6 [G,,,G,,]2 | %46
 [C,,C,]6 [G,,,G,,]2 | [C,,C,]6 [G,,,G,,]2 | [C,,C,]6 [G,,,G,,]2 | !fermata![C,,C,]8 |] %50
V:5
 x8 | x8 | x8 | x8 | x8 | x8 | x8 | x8 | x8 | x8 |[K:C] x8 | x8 | x8 | x8 | x8 | d8 | x8 | x8 | %18
 x8 | [Ac]>[GB] [GB]3/2[Ac] x7/2 | x8 | x8 | x6 f>B | x8 | x8 | x8 | x8 | x8 | x8 | x8 | x8 | %31
 [fa]2- (3[fa][eg][df] x4 | x8 | x8 | x8 | [gb]>[fa] [gb]>[ac'] e2 d2 | x4 A2 z2 | x8 | x8 | %39
 [fa]2- (3[fa][eg][df] x4 | x8 | x8 | x8 | [gb]>[fa] [gb]>[ac'] e2 d2 | x4 A2 z2 | %45
 z2 G>G [Gc]2 z2 | x2 [F_Bd]>[FBd] [FBd]2 x2 | x2 [EAc]>[EAc] [EAc]2 x2 | %48
 x2 [_Ace]>[Ace] [Ace]2 x2 | x8 |] %50

